resources/svg/border-top-o.svg

<svg width="15" height="15" viewBox="0 0 15 15" fill="none" xmlns="http://www.w3.org/2000/svg">
<path d="M13 4.5H14M7 4.5H8M13 7.5H14M10 7.5H11M7 7.5H8M13 10.5H14M7 10.5H8M13 13.5H14M10 13.5H11M7 13.5H8M4 13.5H5M1 13.5H2M1 10.5H2M1 7.5H2M4 7.5H5M1 4.5H2M1 1.5H14" stroke="black"/>
</svg>

<svg viewBox="0 0 15 15" fill="none" xmlns="http://www.w3.org/2000/svg" fill="currentColor"><path d="M13 4.5h1m-7 0h1m5 3h1m-4 0h1m-4 0h1m5 3h1m-7 0h1m5 3h1m-4 0h1m-4 0h1m-4 0h1m-4 0h1m-1-3h1m-1-3h1m2 0h1m-4-3h1m-1-3h13" stroke="currentColor"/></svg>
